X:358
T:Tobermory
R:STRATHSPEY
C:J.S. SKINNER
M:4/4
L:1/8
Q:126
K:A
|:"A" e>e a>f {f} e2 c>A | "Bm" d>Bc>A "E7" B>A G<B | "A" e<ea>f {f}e2 c>A| "B" B>GA>F "E" G<E E2|!
"A"  e<ea>f {f} e2 c>A| "Bm" d>Bc>A "E" B>A (G>B)|  "A" (3efg a>f "D" {f} (e2 c)>A | "Bm" d>Be>d c<A A|!
a| "A" A>Ac>A e>Ac>A| {g}a>Ac>A "E" B>A (G<B)| "A"  A>Ac>A e>Ac>A | "B7"B>GA>F "E7" G>EE>G|!
"A" A>Ac>A e>Ac>A| {g}a>Ac>A "E" B>A (G<B) |1 "A" (3efg a>f {f} "D" (e2 c)>A| "Bm" d>Be>d " E" c<A A :||!
|2"A" (3efg (3agf "D" (3edc (3fed | "Bm" (3cde (3Bcd "A" c<A A
